packages/assets/static/images/icons/facebook-logo.svg

<svg width="24" height="24" viewBox="0 0 24 24" xmlns="http://www.w3.org/2000/svg" fill="currentColor" aria-hidden="true"> <path d="M12.5 1.875C10.4975 1.875 8.5399 2.46882 6.87486 3.58137C5.20981 4.69392 3.91206 6.27523 3.14572 8.12533C2.37939 9.97543 2.17888 12.0112 2.56955 13.9753C2.96023 15.9393 3.92454 17.7435 5.34055 19.1595C6.75656 20.5755 8.56066 21.5398 10.5247 21.9305C12.4888 22.3211 14.5246 22.1206 16.3747 21.3543C18.2248 20.5879 19.8061 19.2902 20.9186 17.6251C22.0312 15.9601 22.625 14.0025 22.625 12C22.622 9.3156 21.5543 6.74199 19.6562 4.84383C17.758 2.94567 15.1844 1.87798 12.5 1.875ZM13.625 19.7934V14.625H15.5C15.7984 14.625 16.0845 14.5065 16.2955 14.2955C16.5065 14.0845 16.625 13.7984 16.625 13.5C16.625 13.2016 16.5065 12.9155 16.2955 12.7045C16.0845 12.4935 15.7984 12.375 15.5 12.375H13.625V10.5C13.625 10.2016 13.7435 9.91548 13.9545 9.7045C14.1655 9.49353 14.4516 9.375 14.75 9.375H16.25C16.5484 9.375 16.8345 9.25647 17.0455 9.0455C17.2565 8.83452 17.375 8.54837 17.375 8.25C17.375 7.95163 17.2565 7.66548 17.0455 7.4545C16.8345 7.24353 16.5484 7.125 16.25 7.125H14.75C13.8549 7.125 12.9965 7.48058 12.3635 8.11351C11.7306 8.74645 11.375 9.60489 11.375 10.5V12.375H9.5C9.20164 12.375 8.91549 12.4935 8.70451 12.7045C8.49353 12.9155 8.375 13.2016 8.375 13.5C8.375 13.7984 8.49353 14.0845 8.70451 14.2955C8.91549 14.5065 9.20164 14.625 9.5 14.625H11.375V19.7934C9.40447 19.509 7.6148 18.4888 6.36617 16.938C5.11755 15.3873 4.50265 13.4211 4.64522 11.4353C4.7878 9.44942 5.67727 7.59128 7.13463 6.23481C8.59198 4.87833 10.509 4.12421 12.5 4.12421C14.491 4.12421 16.408 4.87833 17.8654 6.23481C19.3227 7.59128 20.2122 9.44942 20.3548 11.4353C20.4974 13.4211 19.8825 15.3873 18.6338 16.938C17.3852 18.4888 15.5955 19.509 13.625 19.7934Z"/> </svg>

<svg viewBox="0 0 24 24" xmlns="http://www.w3.org/2000/svg" aria-hidden="true" fill="currentColor"><path d="M12.5 1.875A10.125 10.125 0 1 0 22.625 12 10.137 10.137 0 0 0 12.5 1.875m1.125 17.918v-5.168H15.5a1.125 1.125 0 1 0 0-2.25h-1.875V10.5a1.125 1.125 0 0 1 1.125-1.125h1.5a1.125 1.125 0 0 0 0-2.25h-1.5a3.375 3.375 0 0 0-3.375 3.375v1.875H9.5a1.125 1.125 0 1 0 0 2.25h1.875v5.168a7.875 7.875 0 1 1 2.25 0"/></svg>
